X: 356
T: 357. Warum sollt ich mich denn gr\"amen
N: Derived from chor357.krn
C: Johann Sebastian Bach
%%abc-version 2.0
%%abcx-abcm2ps-target-version 5.9.1 (29 Sep 2008)
%%abc-creator hum2abc beta
%%abcx-conversion-date 2019/03/11 17:28:19
%%abc-edited-by Craig Stuart Sapp
%%humdrum-veritas 2590402654
%%humdrum-veritas-data 4161878673
%%
%%barnumbers 0
L: 1/8
M: C
%%staves [1 2 3 4]
V: 1 clef=treble
V: 2 clef=treble
V: 3 clef=treble-8
V: 4 clef=bass
K: C
[V:1] G2G2A2G2 | 
[V:2] EF GE- ED- DG | 
[V:3] c2c2c2Bc | 
[V:4] C,D, E,C,F,3E, | 
[V:1] ABc2c2B2 | 
[V:2] F2G2G4 | 
[V:3] f2e2de fg/f/ | 
[V:4] D,2E,F,G,4 | 
[V:1] !fermata!c4d2e2 | 
[V:2] !fermata!G4GFE2 | 
[V:3] !fermata!e4B2B2 | 
[V:4] !fermata!C,4G,2^G,2 | 
[V:1] !fermata!c4Bcd2 | 
[V:2] !fermata!E4E2D2 | 
[V:3] !fermata!A4=G2G2 | 
[V:4] !fermata!A,4E,2B,,C, | 
[V:1] !fermata!A4d2d2 | 
[V:2] !fermata!D4D2E2- | 
[V:3] !fermata!^F4^F2G2- | 
[V:4] !fermata!D,4B,,2E,2- | 
[V:1] c2B2A2A3/G/ | 
[V:2] ED- DGG2^F2 | 
[V:3] GA Bde2A/B/c | 
[V:4] E,^F, G,B,, C,A,,D,2 | 
[V:1] !fermata!G4c2c2 | 
[V:2] !fermata!D4G^F GA | 
[V:3] !fermata!B4G2e2 | 
[V:4] !fermata!G,,4E,D, E,^F, | 
[V:1] B2c2A2d2 | 
[V:2] G2G4F2 | 
[V:3] d2c2c2A2 | 
[V:4] G,=F, E,C, F,E, F,D, | 
[V:1] d2^c2!fermata!d4 | 
[V:2] E4!fermata!^F4 | 
[V:3] _B2A2!fermata!A4 | 
[V:4] G,E, A,A,,!fermata!D,4 | 
[V:1] d2e2!fermata!=c4 | 
[V:2] G2G2!fermata!=F4 | 
[V:3] =B2_Bc/_B/!fermata!A4 | 
[V:4] G,2C,2!fermata!F,4 | 
[V:1] =Bcd2!fermata!A4 | 
[V:2] DE DE!fermata!^F4 | 
[V:3] G2G2!fermata!d4 | 
[V:4] F,E, B,,C,!fermata!D,4 | 
[V:1] d2d2c2BA | 
[V:2] ^F2GF EFG2 | 
[V:3] dcB2c2d2 | 
[V:4] B,,2E,2A,,2B,,C, | 
[V:1] A2A3/G/!fermata!G4 |]  
[V:2] G2^F2!fermata!D4 |]  
[V:3] d2A/B/c!fermata!B4 |]  
[V:4] D,4!fermata!G,,4 |]  



